X:388
T: McNeale's Fancy
N: O'Farrell's Pocket Companion v.4 (Sky ed. p.166)
N: "Scotch"
M: C
L: 1/8
Q: 280
R: hornpipe
K: G
D/E/| G<GBG AGE2| GGBG c2e2| dBBG AGE2| DGBA G2G :|
P:2
z| gBdB AGE2| gBdB gdga/b/| e{f}gBG AGE2| DGBA G2G :|
P:3
z| dgbg age2| dega/b/ c'2ba| b2ag age2| dgba g2g :|
P:4
z| dBgB AGE2| dBgB eBgB| ef/g/ dB AGE2| DGBA G2G :|
